images/16758681.svg

<?xml version="1.0" encoding="UTF-8"?>
<svg xmlns="http://www.w3.org/2000/svg" xmlns:xlink="http://www.w3.org/1999/xlink" width="300pt" height="300pt" viewBox="0 0 300 300" version="1.1">
<defs>
<g>
<symbol overflow="visible" id="glyph0-0">
<path style="stroke:none;" d="M 0.453125 1.59375 L 0.453125 -6.34375 L 4.953125 -6.34375 L 4.953125 1.59375 Z M 0.953125 1.09375 L 4.453125 1.09375 L 4.453125 -5.84375 L 0.953125 -5.84375 Z M 0.953125 1.09375 "/>
</symbol>
<symbol overflow="visible" id="glyph0-1">
<path style="stroke:none;" d="M 0.890625 -6.5625 L 2.078125 -6.5625 L 4.984375 -1.078125 L 4.984375 -6.5625 L 5.84375 -6.5625 L 5.84375 0 L 4.65625 0 L 1.75 -5.484375 L 1.75 0 L 0.890625 0 Z M 0.890625 -6.5625 "/>
</symbol>
<symbol overflow="visible" id="glyph0-2">
<path style="stroke:none;" d="M 3.546875 -5.953125 C 2.898438 -5.953125 2.382812 -5.710938 2 -5.234375 C 1.625 -4.753906 1.4375 -4.101562 1.4375 -3.28125 C 1.4375 -2.445312 1.625 -1.789062 2 -1.3125 C 2.382812 -0.832031 2.898438 -0.59375 3.546875 -0.59375 C 4.191406 -0.59375 4.703125 -0.832031 5.078125 -1.3125 C 5.453125 -1.789062 5.640625 -2.445312 5.640625 -3.28125 C 5.640625 -4.101562 5.453125 -4.753906 5.078125 -5.234375 C 4.703125 -5.710938 4.191406 -5.953125 3.546875 -5.953125 Z M 3.546875 -6.6875 C 4.460938 -6.6875 5.195312 -6.375 5.75 -5.75 C 6.300781 -5.132812 6.578125 -4.3125 6.578125 -3.28125 C 6.578125 -2.238281 6.300781 -1.410156 5.75 -0.796875 C 5.195312 -0.179688 4.460938 0.125 3.546875 0.125 C 2.617188 0.125 1.878906 -0.179688 1.328125 -0.796875 C 0.773438 -1.410156 0.5 -2.238281 0.5 -3.28125 C 0.5 -4.3125 0.773438 -5.132812 1.328125 -5.75 C 1.878906 -6.375 2.617188 -6.6875 3.546875 -6.6875 Z M 3.546875 -6.6875 "/>
</symbol>
<symbol overflow="visible" id="glyph0-3">
<path style="stroke:none;" d="M 0.890625 -6.5625 L 1.765625 -6.5625 L 1.765625 -3.875 L 5 -3.875 L 5 -6.5625 L 5.890625 -6.5625 L 5.890625 0 L 5 0 L 5 -3.125 L 1.765625 -3.125 L 1.765625 0 L 0.890625 0 Z M 0.890625 -6.5625 "/>
</symbol>
</g>
</defs>
<g id="surface51745">
<rect x="0" y="0" width="300" height="300" style="fill:rgb(100%,100%,100%);fill-opacity:1;stroke:none;"/>
<path style="fill:none;stroke-width:1;stroke-linecap:butt;stroke-linejoin:miter;stroke:rgb(0%,0%,0%);stroke-opacity:1;stroke-miterlimit:10;" d="M 76.476562 159.984375 L 76.476562 159.984375 M 75.113281 157.3125 L 74.28125 157.9375 M 73.753906 154.636719 L 72.085938 155.890625 M 72.390625 151.964844 L 69.894531 153.847656 M 71.03125 149.289062 L 67.699219 151.800781 M 69.667969 146.617188 L 65.503906 149.753906 M 68.308594 143.945312 L 63.3125 147.707031 M 66.945312 141.269531 L 61.117188 145.660156 M 65.769531 138.960938 L 59.21875 143.894531 "/>
<path style="fill:none;stroke-width:1.2;stroke-linecap:butt;stroke-linejoin:miter;stroke:rgb(0%,0%,0%);stroke-opacity:1;stroke-miterlimit:10;" d="M 76.476562 159.984375 L 67.394531 181.371094 "/>
<path style="fill:none;stroke-width:1.2;stroke-linecap:butt;stroke-linejoin:miter;stroke:rgb(0%,0%,0%);stroke-opacity:1;stroke-miterlimit:10;" d="M 76.476562 159.984375 L 88.003906 158.570312 "/>
<path style="fill:none;stroke-width:1.2;stroke-linecap:butt;stroke-linejoin:miter;stroke:rgb(0%,0%,100%);stroke-opacity:1;stroke-miterlimit:10;" d="M 88.003906 158.570312 L 99.535156 157.15625 "/>
<path style="fill:none;stroke-width:1.2;stroke-linecap:butt;stroke-linejoin:miter;stroke:rgb(0%,0%,0%);stroke-opacity:1;stroke-miterlimit:10;" d="M 67.394531 181.371094 L 44.332031 184.195312 "/>
<path style="fill:none;stroke-width:1.2;stroke-linecap:butt;stroke-linejoin:miter;stroke:rgb(0%,0%,0%);stroke-opacity:1;stroke-miterlimit:10;" d="M 65.753906 187.078125 L 47.304688 189.339844 "/>
<path style="fill:none;stroke-width:1.2;stroke-linecap:butt;stroke-linejoin:miter;stroke:rgb(0%,0%,0%);stroke-opacity:1;stroke-miterlimit:10;" d="M 81.371094 199.925781 L 67.394531 181.371094 "/>
<path style="fill:none;stroke-width:1.2;stroke-linecap:butt;stroke-linejoin:miter;stroke:rgb(0%,0%,0%);stroke-opacity:1;stroke-miterlimit:10;" d="M 44.332031 184.195312 L 35.25 205.582031 "/>
<path style="fill:none;stroke-width:1.2;stroke-linecap:butt;stroke-linejoin:miter;stroke:rgb(0%,0%,0%);stroke-opacity:1;stroke-miterlimit:10;" d="M 35.25 205.582031 L 49.230469 224.140625 "/>
<path style="fill:none;stroke-width:1.2;stroke-linecap:butt;stroke-linejoin:miter;stroke:rgb(0%,0%,0%);stroke-opacity:1;stroke-miterlimit:10;" d="M 41.015625 204.148438 L 52.199219 218.996094 "/>
<path style="fill:none;stroke-width:1.2;stroke-linecap:butt;stroke-linejoin:miter;stroke:rgb(0%,0%,0%);stroke-opacity:1;stroke-miterlimit:10;" d="M 49.230469 224.140625 L 72.289062 221.3125 "/>
<path style="fill:none;stroke-width:1.2;stroke-linecap:butt;stroke-linejoin:miter;stroke:rgb(0%,0%,0%);stroke-opacity:1;stroke-miterlimit:10;" d="M 72.289062 221.3125 L 81.371094 199.925781 "/>
<path style="fill:none;stroke-width:1.2;stroke-linecap:butt;stroke-linejoin:miter;stroke:rgb(0%,0%,0%);stroke-opacity:1;stroke-miterlimit:10;" d="M 68.167969 217.039062 L 75.433594 199.929688 "/>
<path style="fill:none;stroke-width:1.2;stroke-linecap:butt;stroke-linejoin:miter;stroke:rgb(0%,0%,100%);stroke-opacity:1;stroke-miterlimit:10;" d="M 99.535156 157.15625 L 107.457031 165.652344 "/>
<path style="fill:none;stroke-width:1.2;stroke-linecap:butt;stroke-linejoin:miter;stroke:rgb(0%,0%,0%);stroke-opacity:1;stroke-miterlimit:10;" d="M 107.457031 165.652344 L 115.378906 174.152344 "/>
<path style="fill:none;stroke-width:1.2;stroke-linecap:butt;stroke-linejoin:miter;stroke:rgb(0%,0%,0%);stroke-opacity:1;stroke-miterlimit:10;" d="M 110.804688 136.835938 L 105.171875 146.996094 "/>
<path style="fill:none;stroke-width:1.2;stroke-linecap:butt;stroke-linejoin:miter;stroke:rgb(0%,0%,100%);stroke-opacity:1;stroke-miterlimit:10;" d="M 105.171875 146.996094 L 99.535156 157.15625 "/>
<path style=" stroke:none;fill-rule:nonzero;fill:rgb(100%,100%,100%);fill-opacity:1;" d="M 96.535156 151.65625 L 103.535156 151.65625 L 103.535156 162.65625 L 96.535156 162.65625 Z M 96.535156 151.65625 "/>
<g style="fill:rgb(0%,0%,100%);fill-opacity:1;">
  <use xlink:href="#glyph0-1" x="96.535156" y="160.319336"/>
</g>
<path style="fill:none;stroke-width:1.2;stroke-linecap:butt;stroke-linejoin:miter;stroke:rgb(0%,0%,0%);stroke-opacity:1;stroke-miterlimit:10;" d="M 112.695312 173.628906 L 110.476562 185.03125 "/>
<path style="fill:none;stroke-width:1.2;stroke-linecap:butt;stroke-linejoin:miter;stroke:rgb(100%,0%,0%);stroke-opacity:1;stroke-miterlimit:10;" d="M 110.476562 185.03125 L 108.257812 196.4375 "/>
<path style="fill:none;stroke-width:1.2;stroke-linecap:butt;stroke-linejoin:miter;stroke:rgb(0%,0%,0%);stroke-opacity:1;stroke-miterlimit:10;" d="M 118.0625 174.671875 L 115.84375 186.078125 "/>
<path style="fill:none;stroke-width:1.2;stroke-linecap:butt;stroke-linejoin:miter;stroke:rgb(100%,0%,0%);stroke-opacity:1;stroke-miterlimit:10;" d="M 115.84375 186.078125 L 113.625 197.480469 "/>
<path style="fill:none;stroke-width:1;stroke-linecap:butt;stroke-linejoin:miter;stroke:rgb(0%,0%,0%);stroke-opacity:1;stroke-miterlimit:10;" d="M 136.4375 164.335938 L 136.4375 164.335938 M 133.539062 165.113281 L 133.980469 166.054688 M 130.640625 165.886719 L 131.523438 167.777344 M 127.742188 166.664062 L 129.066406 169.496094 M 124.84375 167.4375 L 126.609375 171.21875 M 121.949219 168.214844 L 124.148438 172.9375 M 119.050781 168.988281 L 121.691406 174.660156 M 116.152344 169.765625 L 119.234375 176.378906 M 113.648438 170.433594 L 117.109375 177.867188 "/>
<path style=" stroke:none;fill-rule:nonzero;fill:rgb(100%,100%,100%);fill-opacity:1;" d="M 106.941406 191.457031 L 114.941406 191.457031 L 114.941406 202.457031 L 106.941406 202.457031 Z M 106.941406 191.457031 "/>
<g style="fill:rgb(100%,0%,0%);fill-opacity:1;">
  <use xlink:href="#glyph0-2" x="106.941406" y="200.120117"/>
</g>
<path style="fill:none;stroke-width:1.2;stroke-linecap:butt;stroke-linejoin:miter;stroke:rgb(0%,0%,0%);stroke-opacity:1;stroke-miterlimit:10;" d="M 136.4375 164.335938 L 157.824219 173.417969 "/>
<path style="fill:none;stroke-width:1.2;stroke-linecap:butt;stroke-linejoin:miter;stroke:rgb(0%,0%,0%);stroke-opacity:1;stroke-miterlimit:10;" d="M 133.609375 141.273438 L 136.4375 164.335938 "/>
<path style="fill:none;stroke-width:1.2;stroke-linecap:butt;stroke-linejoin:miter;stroke:rgb(0%,0%,0%);stroke-opacity:1;stroke-miterlimit:10;" d="M 157.824219 173.417969 L 176.378906 159.4375 "/>
<path style="fill:none;stroke-width:1;stroke-linecap:butt;stroke-linejoin:miter;stroke:rgb(0%,0%,0%);stroke-opacity:1;stroke-miterlimit:10;" d="M 173.554688 136.378906 L 173.554688 136.378906 M 173.394531 139.375 L 174.429688 139.246094 M 173.238281 142.367188 L 175.308594 142.113281 M 173.078125 145.363281 L 176.183594 144.984375 M 172.921875 148.359375 L 177.0625 147.851562 M 172.761719 151.355469 L 177.9375 150.722656 M 172.605469 154.351562 L 178.816406 153.589844 M 172.449219 157.347656 L 179.691406 156.460938 M 172.3125 159.9375 L 180.449219 158.941406 "/>
<path style=" stroke:none;fill-rule:nonzero;fill:rgb(0%,0%,0%);fill-opacity:1;" d="M 173.554688 136.378906 L 153.769531 123.519531 L 150.566406 131.070312 Z M 173.554688 136.378906 "/>
<path style="fill:none;stroke-width:1.2;stroke-linecap:butt;stroke-linejoin:miter;stroke:rgb(0%,0%,0%);stroke-opacity:1;stroke-miterlimit:10;" d="M 173.554688 136.378906 L 192.109375 122.398438 "/>
<path style="fill:none;stroke-width:1.2;stroke-linecap:butt;stroke-linejoin:miter;stroke:rgb(0%,0%,0%);stroke-opacity:1;stroke-miterlimit:10;" d="M 152.167969 127.296875 L 133.609375 141.273438 "/>
<path style="fill:none;stroke-width:1.2;stroke-linecap:butt;stroke-linejoin:miter;stroke:rgb(0%,0%,0%);stroke-opacity:1;stroke-miterlimit:10;" d="M 152.167969 127.296875 L 149.339844 104.234375 "/>
<path style=" stroke:none;fill-rule:nonzero;fill:rgb(0%,0%,0%);fill-opacity:1;" d="M 133.609375 141.273438 L 111.585938 132.8125 L 110.019531 140.863281 Z M 133.609375 141.273438 "/>
<path style="fill:none;stroke-width:1.2;stroke-linecap:butt;stroke-linejoin:miter;stroke:rgb(0%,0%,0%);stroke-opacity:1;stroke-miterlimit:10;" d="M 113.28125 135.683594 L 108.375 125.152344 "/>
<path style="fill:none;stroke-width:1.2;stroke-linecap:butt;stroke-linejoin:miter;stroke:rgb(100%,0%,0%);stroke-opacity:1;stroke-miterlimit:10;" d="M 108.375 125.152344 L 103.464844 114.625 "/>
<path style="fill:none;stroke-width:1.2;stroke-linecap:butt;stroke-linejoin:miter;stroke:rgb(0%,0%,0%);stroke-opacity:1;stroke-miterlimit:10;" d="M 108.328125 137.992188 L 103.417969 127.464844 "/>
<path style="fill:none;stroke-width:1.2;stroke-linecap:butt;stroke-linejoin:miter;stroke:rgb(100%,0%,0%);stroke-opacity:1;stroke-miterlimit:10;" d="M 103.417969 127.464844 L 98.511719 116.933594 "/>
<path style=" stroke:none;fill-rule:nonzero;fill:rgb(100%,100%,100%);fill-opacity:1;" d="M 92.988281 110.277344 L 100.988281 110.277344 L 100.988281 121.277344 L 92.988281 121.277344 Z M 92.988281 110.277344 "/>
<g style="fill:rgb(100%,0%,0%);fill-opacity:1;">
  <use xlink:href="#glyph0-2" x="92.988281" y="118.94043"/>
</g>
<path style="fill:none;stroke-width:1.2;stroke-linecap:butt;stroke-linejoin:miter;stroke:rgb(0%,0%,0%);stroke-opacity:1;stroke-miterlimit:10;" d="M 149.339844 104.234375 L 167.898438 90.253906 "/>
<path style="fill:none;stroke-width:1;stroke-linecap:butt;stroke-linejoin:miter;stroke:rgb(0%,0%,0%);stroke-opacity:1;stroke-miterlimit:10;" d="M 149.339844 104.234375 L 149.339844 104.234375 M 146.824219 102.597656 L 146.417969 103.558594 M 144.308594 100.964844 L 143.492188 102.882812 M 141.792969 99.328125 L 140.570312 102.210938 M 139.277344 97.695312 L 137.648438 101.535156 M 136.761719 96.0625 L 134.726562 100.859375 M 134.246094 94.425781 L 131.800781 100.183594 M 131.730469 92.792969 L 128.878906 99.507812 M 129.558594 91.378906 L 126.351562 98.925781 "/>
<path style="fill:none;stroke-width:1.2;stroke-linecap:butt;stroke-linejoin:miter;stroke:rgb(0%,0%,0%);stroke-opacity:1;stroke-miterlimit:10;" d="M 167.898438 90.253906 L 189.285156 99.335938 "/>
<path style="fill:none;stroke-width:1;stroke-linecap:butt;stroke-linejoin:miter;stroke:rgb(0%,0%,0%);stroke-opacity:1;stroke-miterlimit:10;" d="M 167.898438 90.253906 L 167.898438 90.253906 M 168.054688 87.257812 L 167.019531 87.386719 M 168.214844 84.261719 L 166.144531 84.515625 M 168.371094 81.265625 L 165.265625 81.648438 M 168.53125 78.269531 L 164.390625 78.777344 M 168.6875 75.277344 L 163.511719 75.910156 M 168.84375 72.28125 L 162.636719 73.042969 M 169.003906 69.285156 L 161.757812 70.171875 M 169.140625 66.695312 L 161 67.691406 "/>
<path style="fill:none;stroke-width:1.2;stroke-linecap:butt;stroke-linejoin:miter;stroke:rgb(0%,0%,0%);stroke-opacity:1;stroke-miterlimit:10;" d="M 189.285156 99.335938 L 192.109375 122.398438 "/>
<path style="fill:none;stroke-width:1.2;stroke-linecap:butt;stroke-linejoin:miter;stroke:rgb(0%,0%,0%);stroke-opacity:1;stroke-miterlimit:10;" d="M 192.109375 122.398438 L 202.804688 126.9375 "/>
<path style="fill:none;stroke-width:1.2;stroke-linecap:butt;stroke-linejoin:miter;stroke:rgb(0%,0%,100%);stroke-opacity:1;stroke-miterlimit:10;" d="M 202.804688 126.9375 L 213.496094 131.480469 "/>
<path style="fill:none;stroke-width:1.2;stroke-linecap:butt;stroke-linejoin:miter;stroke:rgb(0%,0%,0%);stroke-opacity:1;stroke-miterlimit:10;" d="M 192.113281 128.335938 L 200.667969 131.96875 "/>
<path style="fill:none;stroke-width:1.2;stroke-linecap:butt;stroke-linejoin:miter;stroke:rgb(0%,0%,100%);stroke-opacity:1;stroke-miterlimit:10;" d="M 200.667969 131.96875 L 209.222656 135.601562 "/>
<path style="fill:none;stroke-width:1.2;stroke-linecap:butt;stroke-linejoin:miter;stroke:rgb(0%,0%,100%);stroke-opacity:1;stroke-miterlimit:10;" d="M 213.496094 131.480469 L 214.910156 143.011719 "/>
<path style="fill:none;stroke-width:1.2;stroke-linecap:butt;stroke-linejoin:miter;stroke:rgb(100%,0%,0%);stroke-opacity:1;stroke-miterlimit:10;" d="M 214.910156 143.011719 L 216.324219 154.539062 "/>
<path style=" stroke:none;fill-rule:nonzero;fill:rgb(100%,100%,100%);fill-opacity:1;" d="M 210.496094 125.980469 L 217.496094 125.980469 L 217.496094 136.980469 L 210.496094 136.980469 Z M 210.496094 125.980469 "/>
<g style="fill:rgb(0%,0%,100%);fill-opacity:1;">
  <use xlink:href="#glyph0-1" x="210.496094" y="134.643555"/>
</g>
<path style="fill:none;stroke-width:1.2;stroke-linecap:butt;stroke-linejoin:miter;stroke:rgb(100%,0%,0%);stroke-opacity:1;stroke-miterlimit:10;" d="M 216.324219 154.539062 L 227.015625 159.082031 "/>
<path style="fill:none;stroke-width:1.2;stroke-linecap:butt;stroke-linejoin:miter;stroke:rgb(0%,0%,0%);stroke-opacity:1;stroke-miterlimit:10;" d="M 227.015625 159.082031 L 237.710938 163.621094 "/>
<path style=" stroke:none;fill-rule:nonzero;fill:rgb(100%,100%,100%);fill-opacity:1;" d="M 212.324219 149.039062 L 220.324219 149.039062 L 220.324219 160.039062 L 212.324219 160.039062 Z M 212.324219 149.039062 "/>
<g style="fill:rgb(100%,0%,0%);fill-opacity:1;">
  <use xlink:href="#glyph0-2" x="212.324219" y="157.702148"/>
</g>
<path style="fill:none;stroke-width:1.2;stroke-linecap:butt;stroke-linejoin:miter;stroke:rgb(0%,0%,0%);stroke-opacity:1;stroke-miterlimit:10;" d="M 237.710938 163.621094 L 240.535156 186.683594 "/>
<path style="fill:none;stroke-width:1.2;stroke-linecap:butt;stroke-linejoin:miter;stroke:rgb(0%,0%,0%);stroke-opacity:1;stroke-miterlimit:10;" d="M 240.535156 186.683594 L 221.980469 200.664062 "/>
<path style="fill:none;stroke-width:1.2;stroke-linecap:butt;stroke-linejoin:miter;stroke:rgb(0%,0%,0%);stroke-opacity:1;stroke-miterlimit:10;" d="M 241.96875 192.449219 L 227.125 203.632812 "/>
<path style="fill:none;stroke-width:1.2;stroke-linecap:butt;stroke-linejoin:miter;stroke:rgb(0%,0%,0%);stroke-opacity:1;stroke-miterlimit:10;" d="M 261.921875 195.765625 L 240.535156 186.683594 "/>
<path style="fill:none;stroke-width:1.2;stroke-linecap:butt;stroke-linejoin:miter;stroke:rgb(0%,0%,0%);stroke-opacity:1;stroke-miterlimit:10;" d="M 221.980469 200.664062 L 224.808594 223.726562 "/>
<path style="fill:none;stroke-width:1.2;stroke-linecap:butt;stroke-linejoin:miter;stroke:rgb(0%,0%,0%);stroke-opacity:1;stroke-miterlimit:10;" d="M 224.808594 223.726562 L 246.191406 232.804688 "/>
<path style="fill:none;stroke-width:1.2;stroke-linecap:butt;stroke-linejoin:miter;stroke:rgb(0%,0%,0%);stroke-opacity:1;stroke-miterlimit:10;" d="M 229.082031 219.601562 L 246.191406 226.867188 "/>
<path style="fill:none;stroke-width:1.2;stroke-linecap:butt;stroke-linejoin:miter;stroke:rgb(0%,0%,0%);stroke-opacity:1;stroke-miterlimit:10;" d="M 246.191406 232.804688 L 264.75 218.828125 "/>
<path style="fill:none;stroke-width:1.2;stroke-linecap:butt;stroke-linejoin:miter;stroke:rgb(0%,0%,0%);stroke-opacity:1;stroke-miterlimit:10;" d="M 264.75 218.828125 L 261.921875 195.765625 "/>
<path style="fill:none;stroke-width:1.2;stroke-linecap:butt;stroke-linejoin:miter;stroke:rgb(0%,0%,0%);stroke-opacity:1;stroke-miterlimit:10;" d="M 259.042969 217.1875 L 256.777344 198.738281 "/>
<path style=" stroke:none;fill-rule:nonzero;fill:rgb(100%,100%,100%);fill-opacity:1;" d="M 158.070312 61.695312 L 173.070312 61.695312 L 173.070312 72.695312 L 158.070312 72.695312 Z M 158.070312 61.695312 "/>
<g style="fill:rgb(100%,0%,0%);fill-opacity:1;">
  <use xlink:href="#glyph0-3" x="158.070312" y="70.358398"/>
  <use xlink:href="#glyph0-2" x="165.084961" y="70.358398"/>
</g>
<path style=" stroke:none;fill-rule:nonzero;fill:rgb(100%,100%,100%);fill-opacity:1;" d="M 112.953125 89.652344 L 127.953125 89.652344 L 127.953125 100.652344 L 112.953125 100.652344 Z M 112.953125 89.652344 "/>
<g style="fill:rgb(100%,0%,0%);fill-opacity:1;">
  <use xlink:href="#glyph0-3" x="112.953125" y="98.31543"/>
  <use xlink:href="#glyph0-2" x="119.967773" y="98.31543"/>
</g>
</g>
</svg>

<svg xmlns="http://www.w3.org/2000/svg" xmlns:xlink="http://www.w3.org/1999/xlink" width="300pt" height="300pt" viewBox="0 0 300 300"><defs><symbol overflow="visible"><path d="M.453 1.594v-7.938h4.5v7.938zm.5-.5h3.5v-6.938h-3.5zm0 0"/></symbol><symbol overflow="visible" id="a"><path d="M.89-6.563H2.08l2.906 5.485v-5.484h.86V0H4.656L1.75-5.484V0H.89zm0 0"/></symbol><symbol overflow="visible" id="b"><path d="M3.547-5.953c-.65 0-1.164.242-1.547.72-.375.48-.563 1.13-.563 1.952 0 .835.188 1.49.563 1.967.383.48.898.72 1.547.72.644 0 1.156-.24 1.53-.72.376-.476.564-1.132.564-1.968 0-.822-.187-1.474-.562-1.954-.375-.477-.887-.72-1.53-.72zm0-.734c.914 0 1.648.312 2.203.937.55.617.828 1.438.828 2.47 0 1.042-.277 1.87-.828 2.483-.555.617-1.29.922-2.203.922-.93 0-1.668-.305-2.22-.922C.774-1.41.5-2.237.5-3.28c0-1.033.273-1.853.828-2.47.55-.625 1.29-.938 2.22-.938zm0 0"/></symbol><symbol overflow="visible" id="c"><path d="M.89-6.563h.876v2.688H5v-2.688h.89V0H5v-3.125H1.766V0H.89zm0 0"/></symbol></defs><g><path fill="#fff" d="M0 0h300v300H0z"/><path d="M76.477 159.984m-1.364-2.672l-.832.625m-.526-3.3l-1.668 1.254m.305-3.925l-2.495 1.883m1.136-4.56l-3.33 2.513m1.968-5.183l-4.164 3.137m2.805-5.81l-4.998 3.763m3.633-6.437l-5.828 4.39m4.653-6.7l-6.55 4.935" stroke="#000" stroke-miterlimit="10" fill="none"/><path d="M76.477 159.984l-9.082 21.387M76.477 159.984l11.527-1.414" stroke-width="1.2" stroke="#000" stroke-miterlimit="10" fill="none"/><path d="M88.004 158.57l11.53-1.414" stroke-width="1.2" stroke="#00f" stroke-miterlimit="10" fill="none"/><path d="M67.395 181.37l-23.063 2.825M65.754 187.078l-18.45 2.262M81.37 199.926L67.396 181.37M44.332 184.195l-9.082 21.387M35.25 205.582l13.98 18.56M41.016 204.148L52.2 218.996M49.23 224.14l23.06-2.827M72.29 221.313l9.08-21.387M68.168 217.04l7.266-17.11" stroke-width="1.2" stroke="#000" stroke-miterlimit="10" fill="none"/><path d="M99.535 157.156l7.922 8.496" stroke-width="1.2" stroke="#00f" stroke-miterlimit="10" fill="none"/><path d="M107.457 165.652l7.922 8.5M110.805 136.836l-5.633 10.16" stroke-width="1.2" stroke="#000" stroke-miterlimit="10" fill="none"/><path d="M105.172 146.996l-5.637 10.16" stroke-width="1.2" stroke="#00f" stroke-miterlimit="10" fill="none"/><path d="M96.535 151.656h7v11h-7zm0 0" fill="#fff"/><use xlink:href="#a" x="96.535" y="160.319" fill="#00f"/><path d="M112.695 173.63l-2.218 11.4" stroke-width="1.2" stroke="#000" stroke-miterlimit="10" fill="none"/><path d="M110.477 185.03l-2.22 11.407" stroke-width="1.2" stroke="#f00" stroke-miterlimit="10" fill="none"/><path d="M118.063 174.672l-2.22 11.406" stroke-width="1.2" stroke="#000" stroke-miterlimit="10" fill="none"/><path d="M115.844 186.078l-2.22 11.402" stroke-width="1.2" stroke="#f00" stroke-miterlimit="10" fill="none"/><path d="M136.438 164.336m-2.9.777l.442.942m-3.34-.168l.883 1.89m-3.78-1.113l1.323 2.832m-4.222-2.06l1.765 3.783m-4.66-3.005l2.198 4.722m-5.097-3.95l2.64 5.673m-5.538-4.894l3.082 6.613m-5.586-5.946l3.46 7.433" stroke="#000" stroke-miterlimit="10" fill="none"/><path d="M106.94 191.457h8v11h-8zm0 0" fill="#fff"/><use xlink:href="#b" x="106.941" y="200.12" fill="#f00"/><path d="M136.438 164.336l21.386 9.082M133.61 141.273l2.827 23.063M157.824 173.418l18.555-13.98" stroke-width="1.2" stroke="#000" stroke-miterlimit="10" fill="none"/><path d="M173.555 136.38m-.16 2.995l1.035-.13m-1.192 3.122l2.07-.254m-2.23 3.25l3.106-.38m-3.262 3.376l4.14-.508m-4.3 3.503l5.175-.632m-5.332 3.63l6.21-.763m-6.366 3.758l7.24-.887m-7.377 3.477l8.136-.996" stroke="#000" stroke-miterlimit="10" fill="none"/><path d="M173.555 136.38l-19.785-12.86-3.204 7.55zm0 0"/><path d="M173.555 136.38l18.554-13.982M152.168 127.297l-18.56 13.976M152.168 127.297l-2.828-23.063" stroke-width="1.2" stroke="#000" stroke-miterlimit="10" fill="none"/><path d="M133.61 141.273l-22.024-8.46-1.566 8.05zm0 0"/><path d="M113.28 135.684l-4.905-10.532" stroke-width="1.2" stroke="#000" stroke-miterlimit="10" fill="none"/><path d="M108.375 125.152l-4.91-10.527" stroke-width="1.2" stroke="#f00" stroke-miterlimit="10" fill="none"/><path d="M108.328 137.992l-4.91-10.527" stroke-width="1.2" stroke="#000" stroke-miterlimit="10" fill="none"/><path d="M103.418 127.465l-4.906-10.53" stroke-width="1.2" stroke="#f00" stroke-miterlimit="10" fill="none"/><path d="M92.988 110.277h8v11h-8zm0 0" fill="#fff"/><use xlink:href="#b" x="92.988" y="118.94" fill="#f00"/><path d="M149.34 104.234l18.558-13.98" stroke-width="1.2" stroke="#000" stroke-miterlimit="10" fill="none"/><path d="M149.34 104.234m-2.516-1.636l-.406.96m-2.11-2.593l-.816 1.918m-1.7-3.555l-1.222 2.883m-1.293-4.515l-1.63 3.84m-.885-5.472l-2.035 4.796m-.48-6.434l-2.446 5.758m-.07-7.39l-2.85 6.714m.68-8.13l-3.208 7.548" stroke="#000" stroke-miterlimit="10" fill="none"/><path d="M167.898 90.254l21.387 9.082" stroke-width="1.2" stroke="#000" stroke-miterlimit="10" fill="none"/><path d="M167.898 90.254m.157-2.996l-1.035.13m1.195-3.126l-2.07.254m2.226-3.25l-3.104.382m3.265-3.378l-4.14.507m4.298-3.5l-5.176.633m5.332-3.63l-6.207.763m6.367-3.758l-7.246.887m7.383-3.477l-8.14.996" stroke="#000" stroke-miterlimit="10" fill="none"/><path d="M189.285 99.336l2.824 23.062M192.11 122.398l10.695 4.54" stroke-width="1.2" stroke="#000" stroke-miterlimit="10" fill="none"/><path d="M202.805 126.938l10.69 4.542" stroke-width="1.2" stroke="#00f" stroke-miterlimit="10" fill="none"/><path d="M192.113 128.336l8.555 3.633" stroke-width="1.2" stroke="#000" stroke-miterlimit="10" fill="none"/><path d="M200.668 131.97l8.555 3.632M213.496 131.48l1.414 11.532" stroke-width="1.2" stroke="#00f" stroke-miterlimit="10" fill="none"/><path d="M214.91 143.012l1.414 11.527" stroke-width="1.2" stroke="#f00" stroke-miterlimit="10" fill="none"/><path d="M210.496 125.98h7v11h-7zm0 0" fill="#fff"/><use xlink:href="#a" x="210.496" y="134.644" fill="#00f"/><path d="M216.324 154.54l10.692 4.542" stroke-width="1.2" stroke="#f00" stroke-miterlimit="10" fill="none"/><path d="M227.016 159.082l10.695 4.54" stroke-width="1.2" stroke="#000" stroke-miterlimit="10" fill="none"/><path d="M212.324 149.04h8v11h-8zm0 0" fill="#fff"/><use xlink:href="#b" x="212.324" y="157.702" fill="#f00"/><path d="M237.71 163.62l2.825 23.064M240.535 186.684l-18.555 13.98M241.97 192.45l-14.845 11.183M261.922 195.766l-21.387-9.082M221.98 200.664l2.83 23.063M224.81 223.727l21.38 9.078M229.082 219.602l17.11 7.265M246.19 232.805l18.56-13.977M264.75 218.828l-2.828-23.062M259.043 217.188l-2.266-18.45" stroke-width="1.2" stroke="#000" stroke-miterlimit="10" fill="none"/><path d="M158.07 61.695h15v11h-15zm0 0" fill="#fff"/><g fill="#f00"><use xlink:href="#c" x="158.07" y="70.358"/><use xlink:href="#b" x="165.085" y="70.358"/></g><path d="M112.953 89.652h15v11h-15zm0 0" fill="#fff"/><g fill="#f00"><use xlink:href="#c" x="112.953" y="98.315"/><use xlink:href="#b" x="119.968" y="98.315"/></g></g></svg>
